packages/admin/admin-icons/icons/link-not-menu.svg

<svg xmlns="http://www.w3.org/2000/svg" width="16" height="16" viewBox="0 0 16 16"><path fill="#242424" fill-rule="evenodd" d="M8 1.372583C9.83011067-.457527667 12.7973063-.457527667 14.627417 1.372583 16.4052388 3.1504048 16.4560337 6.00126353 14.7798017 7.84040172L14.627417 8 14.2592272 8.36818983C14.0558815 8.57153546 13.7261931 8.57153546 13.5228475 8.36818983 13.3420958 8.18743816 13.3220123 7.9068601 13.4625969 7.70392479L13.5228475 7.63181017 13.8910373 7.26362033C15.3144567 5.84020092 15.3144567 3.53238208 13.8910373 2.10896267 12.5150652.732990573 10.312671.687124836 8.88160409 1.97136546L8.73637967 2.10896267 5.42267117 5.42267117C5.21932554 5.6260168 4.88963713 5.6260168 4.6862915 5.42267117 4.50553983 5.2419195 4.48545631 4.96134143 4.62604094 4.75840612L4.6862915 4.6862915 8 1.372583ZM1.74077284 7.63181017C1.94411847 7.42846454 2.27380687 7.42846454 2.4771525 7.63181017 2.65790417 7.81256184 2.67798769 8.0931399 2.53740306 8.29607521L2.4771525 8.36818983 2.10896267 8.73637967C.685543259 10.1597991.685543259 12.4676179 2.10896267 13.8910373 3.48493476 15.2670094 5.687329 15.3128752 7.11839591 14.0286345L7.26362033 13.8910373 8.57732883 12.5773288C8.78067446 12.3739832 9.11036287 12.3739832 9.3137085 12.5773288 9.49446017 12.7580805 9.51454369 13.0386586 9.37395906 13.2415939L9.3137085 13.3137085 8 14.627417C6.16988933 16.4575277 3.20269367 16.4575277 1.372583 14.627417-.405238791 12.8495952-.456033699 9.99873647 1.22019828 8.15959828L1.372583 8 1.74077284 7.63181017ZM10.5773288 4.6862915C10.7806745 4.48294587 11.1103629 4.48294587 11.3137085 4.6862915 11.4944602 4.86704317 11.5145437 5.14762123 11.3739591 5.35055655L11.3137085 5.42267117 5.42267117 11.3137085C5.21932554 11.5170541 4.88963713 11.5170541 4.6862915 11.3137085 4.50553983 11.1329568 4.48545631 10.8523788 4.62604094 10.6494435L4.6862915 10.5773288 10.5773288 4.6862915ZM15.6047007 11.3952993C15.7984331 11.5890316 15.7984331 11.9031338 15.6047007 12.0968662L14.2015669 13.5 15.6047007 14.9031338C15.7984331 15.0968662 15.7984331 15.4109684 15.6047007 15.6047007 15.4109684 15.7984331 15.0968662 15.7984331 14.9031338 15.6047007L13.4992984 14.2008653 12.0968662 15.6047007C11.9031338 15.7984331 11.5890316 15.7984331 11.3952993 15.6047007 11.2015669 15.4109684 11.2015669 15.0968662 11.3952993 14.9031338L12.7977315 13.4992984 11.3952993 12.0968662C11.2015669 11.9031338 11.2015669 11.5890316 11.3952993 11.3952993 11.5890316 11.2015669 11.9031338 11.2015669 12.0968662 11.3952993L13.5 12.7984331 14.9031338 11.3952993C15.0968662 11.2015669 15.4109684 11.2015669 15.6047007 11.3952993Z"/></svg>

<svg width="16" height="16" fill="none" viewBox="0 0 16 16">
  <path fill="#242424" fill-rule="evenodd" d="M8 1.374a4.686 4.686 0 0 1 6.78 6.467l-.153.16-.368.368a.52.52 0 0 1-.796-.664l.06-.072.368-.368a3.645 3.645 0 0 0-5.01-5.293l-.145.138-3.313 3.314a.52.52 0 0 1-.797-.665l.06-.072L8 1.374ZM1.74 7.633a.52.52 0 0 1 .797.664l-.06.072-.368.368a3.645 3.645 0 0 0 5.01 5.293l.145-.138 1.313-1.314a.52.52 0 0 1 .797.665l-.06.072L8 14.628a4.686 4.686 0 0 1-6.78-6.467L1.373 8l.368-.368Zm8.837-2.946a.52.52 0 0 1 .797.665l-.06.072-5.891 5.89a.52.52 0 0 1-.797-.664l.06-.072 5.891-5.89Zm5.028 6.71a.496.496 0 0 1 0 .7l-1.403 1.404 1.403 1.403a.496.496 0 0 1-.702.702L13.5 14.202l-1.402 1.404a.496.496 0 0 1-.702-.702l1.403-1.404-1.403-1.402a.496.496 0 1 1 .702-.702L13.5 12.8l1.403-1.403a.496.496 0 0 1 .702 0Z" clip-rule="evenodd"/>
</svg>
